Sources/FrostedUI/Resources/Icons.xcassets/paypal16.imageset/paypal-16.svg

<svg width="16" height="16" viewBox="0 0 16 16" fill="none" xmlns="http://www.w3.org/2000/svg" data-fui-icon="true">
  <path
    d="M8.83911 1.13184C10.9745 1.13184 12.1957 1.90492 12.8098 2.9375C12.9161 3.11632 12.9998 3.29762 13.0667 3.47559C14.0681 3.96647 14.6207 4.67979 14.8987 5.37891C15.1884 6.10773 15.1622 6.77135 15.1311 7.06543L15.0999 7.31738V7.32227L15.0686 7.52148C14.9699 8.07089 14.6747 9.18172 13.8098 10.2188C12.7945 11.4359 11.0671 12.4629 8.22485 12.4629H7.61157L7.21606 14.4385C7.08833 15.0759 6.52827 15.535 5.87817 15.5352H3.91528C3.12701 15.5348 2.53813 14.8085 2.70044 14.0371L2.77271 13.6914H2.07935C1.28538 13.6911 0.69432 12.9558 0.866455 12.1807L2.97778 2.68164C3.17893 1.77646 3.98222 1.13215 4.90942 1.13184H8.83911ZM13.2512 5.48828C13.1871 5.89467 12.9312 7.01603 11.9456 8.04883C10.9219 9.12106 9.20208 10.0048 6.38208 10.0049H5.73853L5.07544 12.6582C4.97369 13.065 4.69413 13.389 4.33325 13.5596L4.23364 14.0352H5.76685L6.16138 12.0596L6.19067 11.9424C6.35948 11.3666 6.88981 10.9633 7.49927 10.9629H8.22485C10.6607 10.9629 11.9518 10.105 12.6584 9.25781C13.3916 8.37864 13.5736 7.41443 13.6125 7.12305L13.6135 7.11914C13.6241 7.04022 13.6329 6.97396 13.6399 6.9082C13.6569 6.74728 13.6709 6.35321 13.5042 5.93359C13.4476 5.79132 13.3668 5.63975 13.2512 5.48828ZM4.90942 2.63184C4.6853 2.63215 4.4913 2.78801 4.44263 3.00684L2.40161 12.1914H3.64478L4.30884 9.53809L4.34204 9.42676C4.52936 8.87981 5.04553 8.50525 5.63208 8.50488H6.38208C8.86525 8.50478 10.1667 7.73964 10.8606 7.0127C11.5736 6.26556 11.7403 5.45887 11.7727 5.24316C11.7806 5.19073 11.7872 5.13906 11.7932 5.08496C11.8173 4.86918 11.8426 4.24703 11.5198 3.7041C11.2374 3.22967 10.5776 2.63184 8.83911 2.63184H4.90942Z"
    fill="currentColor"
  />
</svg>

<svg xmlns="http://www.w3.org/2000/svg" width="16" height="16" fill="none" data-fui-icon="true" viewBox="0 0 16 16"><path fill="currentColor" d="M8.84 1.132c2.135 0 3.356.773 3.97 1.806.106.178.19.36.257.538 1.001.49 1.554 1.204 1.832 1.903.29.729.263 1.392.232 1.686l-.031.252v.005l-.031.2a5.9 5.9 0 0 1-1.26 2.697c-1.014 1.217-2.742 2.244-5.584 2.244h-.613l-.396 1.976a1.365 1.365 0 0 1-1.338 1.096H3.915A1.243 1.243 0 0 1 2.7 14.037l.073-.346h-.694a1.242 1.242 0 0 1-1.213-1.51l2.112-9.5a1.98 1.98 0 0 1 1.931-1.55zm4.411 4.356a4.9 4.9 0 0 1-1.305 2.56c-1.024 1.073-2.744 1.957-5.564 1.957H5.74l-.664 2.653c-.101.407-.38.731-.742.902l-.1.475h1.534l.394-1.975.03-.118c.168-.575.699-.979 1.308-.98h.726c2.436 0 3.727-.857 4.433-1.704a4.4 4.4 0 0 0 .955-2.135V7.12c.011-.079.02-.145.027-.21.017-.162.03-.556-.136-.975a1.9 1.9 0 0 0-.253-.446M4.91 2.632a.48.48 0 0 0-.466.375L2.402 12.19h1.243l.664-2.653.033-.111a1.365 1.365 0 0 1 1.29-.922h.75c2.483 0 3.785-.765 4.479-1.492.713-.747.88-1.554.912-1.77q.012-.077.02-.158c.024-.216.05-.838-.273-1.38-.283-.475-.942-1.073-2.68-1.073z"/></svg>
